X:1
T:Polsk
T:(Totakt-pols, nr. FVL-42)
S:efter Frederik Vilhelm Lind
O:Gullestrup, Herning, Ringkøbing amt, Danmark
R:Totakt-pols
Z:Åke Persson 2011-06-25
M:2/4
L:1/8
Q:1/4=100
K:D
g |: {f}a2 bg | f2 {a}ge | dd cc | de fg | {f}a2 bg | f2 {a}ge | dd cc |1 d2 zg :|2 d2 z2 |]
|: [Ae]>g fd/f/ | ge/g/ fd | [Ae]>g fd/f/ | ge/g/ fd | {f}a2 bg | f2 {a}ge | dd cc | d2 z2 :|

